img/favicons/icon.svg

<svg width="152" height="152" viewBox="0 0 152 152" fill="none" xmlns="http://www.w3.org/2000/svg">
<path fill-rule="evenodd" clip-rule="evenodd" d="M152 76C152 88.1333 149.157 99.6026 144.1 109.778H80.7501C92.4476 93.8522 104.5 74.5672 104.5 54.8889C104.5 29.5655 85.2077 8.24749 58.9749 1.91432C64.4483 0.661671 70.1469 0 76.0001 0C117.974 0 152 34.0264 152 76ZM85.4999 54.8889C85.4999 33.9021 66.3601 16.8889 42.75 16.8889C11.1594 16.8889 0 52.8078 0 76C0 117.974 34.0263 152 75.9999 152C98.5086 152 118.732 142.215 132.648 126.667H42.75C44.4212 124.773 46.1711 122.821 47.9688 120.816C64.6743 102.183 85.4999 78.9544 85.4999 54.8889Z" fill="#7859CF"/>
</svg>

<svg width="152" height="152" fill="none" xmlns="http://www.w3.org/2000/svg"><path fill-rule="evenodd" clip-rule="evenodd" d="M152 76c0 12.133-2.843 23.603-7.9 33.778H80.75c11.698-15.926 23.75-35.21 23.75-54.89 0-25.322-19.292-46.64-45.525-52.974A76.241 76.241 0 0 1 76 0c41.974 0 76 34.026 76 76ZM85.5 54.889c0-20.987-19.14-38-42.75-38C11.16 16.889 0 52.808 0 76c0 41.974 34.026 76 76 76 22.509 0 42.732-9.785 56.648-25.333H42.75a998.4 998.4 0 0 1 5.219-5.851c16.705-18.633 37.53-41.862 37.53-65.927Z" fill="#7859CF"/></svg>
